X: 4255
T: Boat To Bofin, The
R: jig
M: 6/8
K: Dmajor
|:A3 A2F|Afe edA|~B3 B2A|Bdg fdB|
ABA AFG|Afe edA|B2d e2d|1 cBA GFE:|2 cBA def||
|:a2a ~g3|fed def|g2e faf|edB Adf|
a2a gag|fed def|g2e fed|1 edB Adf:|2 edB BAF||
|:ADD DE/F/G|Ade fed|Be^d e2f|gfe edB||
ADD DE/F/G|Ade fed|1 Bef g2e|fed BAF:|2 Bef gab|agf edB||

